X:1
T:Title
%%score { ( 1 2 ) | ( 3 4 ) }
L:1/8
M:4/4
K:E
V:1 treble nm="Grand Piano"
V:2 treble 
V:3 bass 
V:4 bass 
V:1
 z4 z2[Q:1/4=100] z F | G3 G A2 =G2 | G4 E2 E2 | [A,DF]3 [CFA] [B,EG]2 [A,DF]2 |[M:3/4] [G,E]6 | %5
[M:1/4] [EG][FA] |[M:4/4] [GB]3 [GB] [Ac]2 [=G^A]2 | [GB]4 G2 G2 | F2 B2 c3 ^A |[M:3/4] [DB]6 | %10
[M:1/4] [DA]2 |[M:4/4] G3 G F2 E2 | A4 G2 [FG]2 | [EG]3 [EG] [E^A]2 [EA]2 |[M:3/4] [DB]6 | %15
[M:1/4] [DA]2 |[M:4/4] [EG]3 [EG] [EA]2 [E^A]2 |[M:9/8] .[EB]6 z3 |[M:4/4] [EB]2 [EG]2 [DA]3 D | %19
[M:3/4] E6 |] %20
V:2
 z4 z2 E2 | x8 | x8 | x8 |[M:3/4] x6 |[M:1/4] x2 |[M:4/4] x8 | x8 | x8 |[M:3/4] x6 |[M:1/4] x2 | %11
[M:4/4] x8 | x8 | x8 |[M:3/4] x6 |[M:1/4] x2 |[M:4/4] x8 |[M:9/8] z2 B,- B, [Ec]2- [Ec] [Ec]2 | %18
[M:4/4] x8 |[M:3/4] x6 |] %20
V:3
 z4 z2 G,A, | [E,B,E]3 [E,B,E] [E,CE]2 [E,^A,E]2 | [E,B,E]4 [E,G,B,]2 [C,G,C]2 | %3
 B,,3 B,, B,,2 B,,2 |[M:3/4] E,6 |[M:1/4] [E,B,]2 |[M:4/4] [E,E]3 [E,E] [E,E]2 [E,E]2 | %7
 [E,E]4 [E,B,E]2 [E,B,E]2 | [F,B,D]2 [F,B,D]2 [F,^A,E]3 [F,CE] |[M:3/4] [B,,B,]6 | %10
[M:1/4] [B,,B,]2 |[M:4/4] [E,B,E]3 [E,B,E] [F,B,D]2 [G,B,]2 | [F,B,D]4 [E,B,E]2 [D,^B,]2 | %13
 [C,C]3 [C,C] [F,C]2 [F,C]2 |[M:3/4] [B,,B,]6 |[M:1/4] [B,,B,]2 | %16
[M:4/4] [E,B,]3 [=D,B,] [C,A,]2 [^B,,=G,]2 |[M:9/8] [B,,G,]2 G,,- G,, [A,,A,]2- [A,,A,] [A,,=G,]2 | %18
[M:4/4] [B,,G,]2 [B,,B,]2 [B,,B,]3 [B,,A,B,] |[M:3/4] [E,G,B,]6 |] %20
V:4
 z4 z2 E,2 | x8 | x8 | x8 |[M:3/4] x6 |[M:1/4] x2 |[M:4/4] x8 | x8 | x8 |[M:3/4] x6 |[M:1/4] x2 | %11
[M:4/4] x8 | x8 | x8 |[M:3/4] x6 |[M:1/4] x2 |[M:4/4] x8 |[M:9/8] x9 |[M:4/4] x8 |[M:3/4] x6 |] %20

